X:6
T:Ewe with the Crooked Horn, The
R:strathspey
S:Chris Norman
M:C
L:1/8
Q:1/4=120
K:C
E<A A>c G>A B<G |E<A c3/2B/4c/4 d>B c<A |
G/4A/4B3/2 d>c B>A G<E |E<A A>c B<G A2 :|!
e<a a>c' g>a b<g| e<a a>b c'3/2b/4a/4 a2|
e<a a>b c'b/a/ ba/g/| e<a c'>a b>g a2|!
gg d>e B<G |A/B/c/d/ e>c d>B A>B|
gg d>e B<G |A/B/c/d/ e>c d>B A2||
